X: 44
T: Batuta
O: Romania
M: 2/4
L: 1/8
Q: 1/4=300
K: CDor
%%MIDI program 65
|: z2b2|a2d2|g2c2|f2B2|e2B2|BAB2|d2c2|f4 |
   a2b2|a2d2|g2c2|f2B2|e2B2|BAB2|d2c2|c4:|
|: z2c2|BFB2|d2c2|f2c2|d2B2|BFB2|d2c2|c4-|c4 :|



